X:7
T:Neptune's Levee. Tho24CDs1792.07
M:3/8
L:1/8
Q:3/8=50
C:"79"
B:Thompson 24 CDs 1792
W:1st & 2nd Cu: foot it & change sides .| the same back again :| lead down the
W:middle :|. up again to the top :||: 2 Cu Poussett.:|
Z:Village Music Project, Chris Partington, 1999 & 2017
K:F
|:(c/=B/c/d/)c|f2c|dge|(f/e/f/g/).a|.g(g/a/g/f/)|efg|fed|c3:|
|:.g(g/f/e/d/)|ccc|gg/f/e/d/|ccc|.b(bg)|.a(af)|.g(ge)|f3:|
|:c2d|e2f|g2a|b2a|{a}g2f|{f}e2f|{a}gfg|f3:|

